X:0816
T:Batchelor's Hall.
M:6/8
L:1/8
Q:3/8=90
I: ||
Z:Jack Campin * www.campin.me.uk * 2009
K:D
A   |ddd    fad      |cee       e2 e/f/|gee        cA/B/c/A/|ddd (d>ef/)^g/|
     aee    cA/B/c/A/|eee       e2 e/d/|cA/B/c/A/ ^GE/F/G/E/|AAA  A2
A/A/|ddd    dAA      |FD/E/F/G/ A2 A/A/|BBB        gee      |dce Ha2
a/g/|fdd    cAc      |daa       a2 a/g/|fdd        cA/B/c/A/|ddd  d2
f/d/|e2f/d/ e2e/f/   |ggg/a/   Hb2 b/a/|fdd        cA/B/c/A/|ddd  d2      |]

